icons/sun.svg

<svg xmlns="http://www.w3.org/2000/svg" width="24" height="24" viewBox="0 0 24 24"><path d="M17 12c0 2.762-2.238 5-5 5s-5-2.238-5-5 2.238-5 5-5 5 2.238 5 5zm-9.184-5.599l-3.594-3.594-1.414 1.414 3.594 3.595c.402-.537.878-1.013 1.414-1.415zm4.184-1.401c.34 0 .672.033 1 .08v-5.08h-2v5.08c.328-.047.66-.08 1-.08zm5.598 2.815l3.594-3.595-1.414-1.414-3.594 3.595c.536.402 1.012.878 1.414 1.414zm-12.598 4.185c0-.34.033-.672.08-1h-5.08v2h5.08c-.047-.328-.08-.66-.08-1zm11.185 5.598l3.594 3.593 1.415-1.414-3.594-3.594c-.403.537-.879 1.013-1.415 1.415zm-9.784-1.414l-3.593 3.593 1.414 1.414 3.593-3.593c-.536-.402-1.011-.877-1.414-1.414zm12.519-5.184c.047.328.08.66.08 1s-.033.672-.08 1h5.08v-2h-5.08zm-6.92 8c-.34 0-.672-.033-1-.08v5.08h2v-5.08c-.328.047-.66.08-1 .08z"/></svg>

<?xml version="1.0" encoding="utf-8"?>
<!-- Generator: Adobe Illustrator 23.0.1, SVG Export Plug-In . SVG Version: 6.00 Build 0)  -->
<svg version="1.1" id="Calque_1" xmlns="http://www.w3.org/2000/svg" xmlns:xlink="http://www.w3.org/1999/xlink" x="0px" y="0px"
	 viewBox="0 0 24 24" style="enable-background:new 0 0 24 24;" xml:space="preserve">
<style type="text/css">
	.st0{fill:#FF9300;}
</style>
<path class="st0" d="M17,12c0,2.8-2.2,5-5,5s-5-2.2-5-5s2.2-5,5-5S17,9.2,17,12z M7.8,6.4L4.2,2.8L2.8,4.2l3.6,3.6
	C6.8,7.3,7.3,6.8,7.8,6.4z M12,5c0.3,0,0.7,0,1,0.1V0h-2v5.1C11.3,5,11.7,5,12,5z M17.6,7.8l3.6-3.6l-1.4-1.4l-3.6,3.6
	C16.7,6.8,17.2,7.3,17.6,7.8z M5,12c0-0.3,0-0.7,0.1-1H0v2h5.1C5,12.7,5,12.3,5,12z M16.2,17.6l3.6,3.6l1.4-1.4l-3.6-3.6
	C17.2,16.7,16.7,17.2,16.2,17.6z M6.4,16.2l-3.6,3.6l1.4,1.4l3.6-3.6C7.3,17.2,6.8,16.7,6.4,16.2z M18.9,11c0,0.3,0.1,0.7,0.1,1
	s0,0.7-0.1,1H24v-2H18.9z M12,19c-0.3,0-0.7,0-1-0.1V24h2v-5.1C12.7,19,12.3,19,12,19z"/>
</svg>
